public/logo.svg

<svg width="130" height="30" viewBox="0 0 130 30" fill="none" xmlns="http://www.w3.org/2000/svg">
<circle cx="15" cy="15" r="15" fill="#1DC6D1"/>
<path d="M16.74 10.516V16.312C16.74 17.2 16.496 17.884 16.008 18.364C15.528 18.844 14.86 19.084 14.004 19.084C13.076 19.084 12.34 18.824 11.796 18.304C11.252 17.776 10.98 17.02 10.98 16.036H13.008C13.008 16.828 13.308 17.224 13.908 17.224C14.428 17.224 14.688 16.92 14.688 16.312V10.516H16.74Z" fill="white"/>
<path d="M46.93 10.102V16.864C46.93 17.9 46.6453 18.698 46.076 19.258C45.516 19.818 44.7367 20.098 43.738 20.098C42.6553 20.098 41.7967 19.7947 41.162 19.188C40.5273 18.572 40.21 17.69 40.21 16.542H42.576C42.576 17.466 42.926 17.928 43.626 17.928C44.2327 17.928 44.536 17.5733 44.536 16.864V10.102H46.93ZM51.8336 10.102V15.814C51.8336 16.4673 51.9783 16.9667 52.2676 17.312C52.5663 17.6573 52.9956 17.83 53.5556 17.83C54.1156 17.83 54.5403 17.6573 54.8296 17.312C55.1283 16.9667 55.2776 16.4673 55.2776 15.814V10.102H57.6716V15.814C57.6716 16.7473 57.4896 17.536 57.1256 18.18C56.7616 18.8147 56.2623 19.2953 55.6276 19.622C55.0023 19.9393 54.2929 20.098 53.4996 20.098C52.7063 20.098 52.0063 19.9393 51.3996 19.622C50.7929 19.3047 50.3169 18.824 49.9716 18.18C49.6263 17.536 49.4536 16.7473 49.4536 15.814V10.102H51.8336ZM62.6653 10.102V20H60.2713V10.102H62.6653ZM69.8402 10.004C71.1002 10.004 72.1409 10.3353 72.9622 10.998C73.7929 11.6607 74.3295 12.5567 74.5722 13.686H72.0382C71.8515 13.2287 71.5622 12.8693 71.1702 12.608C70.7875 12.3467 70.3302 12.216 69.7982 12.216C69.0982 12.216 68.5335 12.4727 68.1042 12.986C67.6749 13.4993 67.4602 14.1853 67.4602 15.044C67.4602 15.9027 67.6749 16.5887 68.1042 17.102C68.5335 17.606 69.0982 17.858 69.7982 17.858C70.3302 17.858 70.7875 17.7273 71.1702 17.466C71.5622 17.2047 71.8515 16.85 72.0382 16.402H74.5722C74.3295 17.522 73.7929 18.418 72.9622 19.09C72.1409 19.7527 71.1002 20.084 69.8402 20.084C68.8789 20.084 68.0342 19.874 67.3062 19.454C66.5782 19.0247 66.0135 18.4273 65.6122 17.662C65.2202 16.8967 65.0242 16.024 65.0242 15.044C65.0242 14.064 65.2202 13.1913 65.6122 12.426C66.0135 11.6607 66.5782 11.068 67.3062 10.648C68.0342 10.2187 68.8789 10.004 69.8402 10.004ZM79.3079 12.006V14.078H82.6539V15.884H79.3079V18.082H83.0739V20H76.9139V10.102H83.0739V12.006H79.3079ZM94.3374 15.03C94.3374 16.0007 94.1274 16.864 93.7074 17.62C93.2968 18.3667 92.6994 18.95 91.9154 19.37C91.1408 19.79 90.2261 20 89.1714 20H85.4334V10.102H89.1714C90.2354 10.102 91.1548 10.3073 91.9294 10.718C92.7041 11.1287 93.2968 11.7073 93.7074 12.454C94.1274 13.2007 94.3374 14.0593 94.3374 15.03ZM88.9614 17.858C89.8948 17.858 90.6181 17.6107 91.1314 17.116C91.6541 16.6213 91.9154 15.926 91.9154 15.03C91.9154 14.134 91.6541 13.4387 91.1314 12.944C90.6181 12.4493 89.8948 12.202 88.9614 12.202H87.8274V17.858H88.9614ZM102.833 18.194H99.123L98.507 20H95.987L99.613 10.172H102.371L105.997 20H103.449L102.833 18.194ZM102.217 16.374L100.985 12.734L99.739 16.374H102.217ZM110.322 10.102V20H107.928V10.102H110.322ZM115.368 18.166H118.56V20H112.974V10.102H115.368V18.166ZM129.214 10.102L125.784 16.71V20H123.376V16.71L119.946 10.102H122.69L124.594 14.134L126.498 10.102H129.214Z" fill="#11BCC7"/>
</svg>

<?xml version="1.0" encoding="utf-8"?>
<!-- Generator: Adobe Illustrator 24.0.1, SVG Export Plug-In . SVG Version: 6.00 Build 0)  -->
<svg version="1.1" id="Camada_1" xmlns="http://www.w3.org/2000/svg" xmlns:xlink="http://www.w3.org/1999/xlink" x="0px" y="0px"
	 viewBox="0 0 130 30" style="enable-background:new 0 0 130 30;" xml:space="preserve">
<style type="text/css">
	.st0{fill:#1DC6D1;}
	.st1{fill:#11BCC7;}
</style>
<path class="st0" d="M15,0C6.7,0,0,6.7,0,15c0,8.3,6.7,15,15,15c8.3,0,15-6.7,15-15C30,6.7,23.3,0,15,0z M16.7,16.3
	c0,0.9-0.2,1.6-0.7,2.1c-0.5,0.5-1.1,0.7-2,0.7c-0.9,0-1.7-0.3-2.2-0.8C11.3,17.8,11,17,11,16h2c0,0.8,0.3,1.2,0.9,1.2
	c0.5,0,0.8-0.3,0.8-0.9v-5.8h2.1V16.3z"/>
<path class="st1" d="M46.9,10.1v6.8c0,1-0.3,1.8-0.9,2.4c-0.6,0.6-1.3,0.8-2.3,0.8c-1.1,0-1.9-0.3-2.6-0.9c-0.6-0.6-1-1.5-1-2.6h2.4
	c0,0.9,0.3,1.4,1,1.4c0.6,0,0.9-0.4,0.9-1.1v-6.8H46.9z M51.8,10.1v5.7c0,0.7,0.1,1.2,0.4,1.5c0.3,0.3,0.7,0.5,1.3,0.5
	c0.6,0,1-0.2,1.3-0.5c0.3-0.3,0.4-0.8,0.4-1.5v-5.7h2.4v5.7c0,0.9-0.2,1.7-0.5,2.4c-0.4,0.6-0.9,1.1-1.5,1.4
	c-0.6,0.3-1.3,0.5-2.1,0.5s-1.5-0.2-2.1-0.5c-0.6-0.3-1.1-0.8-1.4-1.4c-0.3-0.6-0.5-1.4-0.5-2.4v-5.7H51.8z M62.7,10.1V20h-2.4v-9.9
	H62.7z M69.8,10c1.3,0,2.3,0.3,3.1,1c0.8,0.7,1.4,1.6,1.6,2.7H72c-0.2-0.5-0.5-0.8-0.9-1.1c-0.4-0.3-0.8-0.4-1.4-0.4
	c-0.7,0-1.3,0.3-1.7,0.8c-0.4,0.5-0.6,1.2-0.6,2.1c0,0.9,0.2,1.5,0.6,2.1c0.4,0.5,1,0.8,1.7,0.8c0.5,0,1-0.1,1.4-0.4
	c0.4-0.3,0.7-0.6,0.9-1.1h2.5c-0.2,1.1-0.8,2-1.6,2.7c-0.8,0.7-1.9,1-3.1,1c-1,0-1.8-0.2-2.5-0.6c-0.7-0.4-1.3-1-1.7-1.8
	C65.2,16.9,65,16,65,15s0.2-1.9,0.6-2.6c0.4-0.8,1-1.4,1.7-1.8C68,10.2,68.9,10,69.8,10z M79.3,12v2.1h3.3v1.8h-3.3v2.2h3.8V20h-6.2
	v-9.9h6.2V12H79.3z M94.3,15c0,1-0.2,1.8-0.6,2.6c-0.4,0.7-1,1.3-1.8,1.8c-0.8,0.4-1.7,0.6-2.7,0.6h-3.7v-9.9h3.7
	c1.1,0,2,0.2,2.8,0.6c0.8,0.4,1.4,1,1.8,1.7C94.1,13.2,94.3,14.1,94.3,15z M89,17.9c0.9,0,1.7-0.2,2.2-0.7c0.5-0.5,0.8-1.2,0.8-2.1
	s-0.3-1.6-0.8-2.1c-0.5-0.5-1.2-0.7-2.2-0.7h-1.1v5.7H89z M102.8,18.2h-3.7L98.5,20H96l3.6-9.8h2.8L106,20h-2.5L102.8,18.2z
	 M102.2,16.4l-1.2-3.6l-1.2,3.6H102.2z M110.3,10.1V20h-2.4v-9.9H110.3z M115.4,18.2h3.2V20H113v-9.9h2.4V18.2z M129.2,10.1
	l-3.4,6.6V20h-2.4v-3.3l-3.4-6.6h2.7l1.9,4l1.9-4H129.2z"/>
</svg>
